X: 1725
T: Seni Her Dem Anıyorum
C: Mısırlı Udî İbrahim Efendi
O: Turkey
F: http://compmusic.upf.edu/node/140
N: segah--sarki--aksak--seni_her_dem--misirli_udi_ibrahim_efendi
N: makam= segah
N: form= sarki
N: usul= aksak = 9/8
M: 9/8
L: 1/16
K: C _1/4B _1/4e ^f 
Q: 1/4=240
%%MIDI tuningsystem comma53
.G4 .B4 .d4 c2B2 c2 | d4d4d4d2 e2f2  | \
w:  ARANAĞME  |   | 
g4 g4 g4 =f2e2 d2 | =f3ed2 c2B2 ^A2B4z2  | 
w:   |   | 
.G4 .B4 .d4 c2B2 c2 | d4d4d4d2 e2f2  | \
w:  ARANAĞME  |   | 
g4 g4 g4 =f2e2 d2 | =f3ed2 c2B2 ^A2B4z2  | 
w:   |   | 
z4 B2B2 B4 d6 | dc ded2 c2B2 ^A2B4z2  | \
w:  Se ni  her  dem   |  a *  *  *  nı *  yo *  rum    | 
z4 d2e2 e2d2 g2=f2 e2 | 
w:  Söz le ri *  ne   | 
d4d2 c2B2 c2d4c2  | B4 B2B2 B4 d6 | dc ded2 c2B2 ^A2B6  | 
w:  ka nı *  yo *  rum    |  *  Se ni her dem  |  a *  *  *  rı *  yo *  rum  | 
z4 d2e2 e2d2 g2^1/4f2 e2 | d4d2 c2B2 c2d2 e2g2  | \
w:  Söz le ri *  ne  |  ka nı *  yo *  rum  | 
=f4 f2f2 f4 f2f2 e2 | 
w:  *  Rah me de cek  | 
e4e2 d2dc d2e=f efde  | c4 d2e2 e2d2 =f2e2 d2 | \
w:  sa nı *  yo *  *  rum  |  *  Sa na  ben  *  al  | 
dc ded2 c2B2 c2d2 e2g2  | 
w:  da *  *  *  nı *  yo *  rum  | 
=f4 f2f2 f4 f2f2 e2 | e4e2 d2dc d2e=f efde  | \
w:  *  Rah me de cek  |  sa nı *  yo *  *  rum  | 
c4 d2e2 e2d2 =f2e2 d2 | 
w:  *  Sa na  ben  *  al  | 
dc ded2 c2B2 ^A2B4z2  | .G4 .B4 .d4 c2B2 c2 | \
w:  da *  *  *  nı *  yo *  rum  |  ARANAĞME  | 
d4d4d4d2 e2f2  | 
w:   | 
g4 g4 g4 =f2e2 d2 | =f3ed2 c2B2 ^A2B4z2  | \
w:   |   | 
.G4 .B4 .d4 c2B2 c2 | d4d4d4d2 e2f2  | 
w:  ARANAĞME  |   | 
g4 g4 g4 =f2e2 d2 | =f3ed2 c2B2 ^A2B4z2  | \
w:   |   | 
z4 B2B2 B4 d6 | dc ded2 c2B2 ^A2B4z2  | 
w:  Se ni  her  dem   |  a *  *  *  nı *  yo *  rum    | 
z4 d2e2 e2d2 g2=f2 e2 | d4d2 c2B2 c2d4c2  | \
w:  Söz le ri *  ne   |  ka nı *  yo *  rum    | 
B4 B2B2 B4 d6 | dc ded2 c2B2 ^A2B6  | 
w:  *  Se ni her dem  |  a *  *  *  rı *  yo *  rum  | 
z4 d2e2 e2d2 g2^1/4f2 e2 | d4d2 c2B2 c2d2 e2g2  | \
w:  Söz le ri *  ne  |  ka nı *  yo *  rum  | 
=f4 f2f2 f4 f2f2 e2 | 
w:  *  Rah me de cek  | 
e4e2 d2dc d2e=f efde  | c4 d2e2 e2d2 =f2e2 d2 | \
w:  sa nı *  yo *  *  rum  |  *  Sa na  ben  *  al  | 
dc ded2 c2B2 c2d2 e2g2  | 
w:  da *  *  *  nı *  yo *  rum  | 
=f4 f2f2 f4 f2f2 e2 | e4e2 d2dc d2e=f efde  | \
w:  *  Rah me de cek  |  sa nı *  yo *  *  rum  | 
c4 d2e2 e2d2 =f2e2 d2 | 
w:  *  Sa na  ben  *  al  | 
dc ded2 c2B2 ^A2B4z2  | |


